SVG/ico__darkmode--alt.svg

<svg width="240" height="240" viewBox="0 0 240 240" fill="none" xmlns="http://www.w3.org/2000/svg">
<path d="M204.85 119.99C181.42 143.42 143.43 143.42 120 119.99C96.5699 96.5601 96.5699 58.5701 120 35.1401C125.85 29.2901 132.61 24.9001 139.82 21.9701C108.1 15.5901 73.8799 24.6901 49.2899 49.2801C10.2399 88.3301 10.2399 151.65 49.2899 190.7C88.3399 229.75 151.66 229.75 190.71 190.7C215.3 166.11 224.4 131.89 218.02 100.17C215.09 107.38 210.7 114.14 204.85 119.99Z" fill="black"/>
</svg>

<svg xmlns="http://www.w3.org/2000/svg" viewBox="0 0 240 240">
  <path d="M204.85,120c-23.43,23.43-61.42,23.43-84.85,0s-23.43-61.42,0-84.85c5.85-5.85,12.61-10.24,19.82-13.17-31.72-6.38-65.94,2.72-90.53,27.31-39.05,39.05-39.05,102.37,0,141.42s102.37,39.05,141.42,0c24.59-24.59,33.69-58.81,27.31-90.53-2.93,7.21-7.32,13.97-13.17,19.82Z"/>
</svg>
